assets/img/icons/duotone-icons/Devices/TV#2.svg

<?xml version="1.0" encoding="UTF-8"?>
<svg width="24px" height="24px" viewBox="0 0 24 24" version="1.1" xmlns="http://www.w3.org/2000/svg" xmlns:xlink="http://www.w3.org/1999/xlink">
    <!-- Generator: Sketch 52.2 (67145) - http://www.bohemiancoding.com/sketch -->
    <title>Stockholm-icons / Devices / TV#2</title>
    <desc>Created with Sketch.</desc>
    <g id="Stockholm-icons-/-Devices-/-TV#2" stroke="none" stroke-width="1" fill="none" fill-rule="evenodd">
        <rect id="bound" x="0" y="0" width="24" height="24"></rect>
        <path d="M3,5 L21,5 C21.5522847,5 22,5.44771525 22,6 L22,17 C22,17.5522847 21.5522847,18 21,18 L3,18 C2.44771525,18 2,17.5522847 2,17 L2,6 C2,5.44771525 2.44771525,5 3,5 Z M9.632,10.066 L11.032,10.066 L11.032,9.044 L7.035,9.044 L7.035,10.066 L8.435,10.066 L8.435,14 L9.632,14 L9.632,10.066 Z M14.935,14 L16.846,9.044 L15.523,9.044 L14.382,12.558 L14.354,12.558 L13.206,9.044 L11.862,9.044 L13.738,14 L14.935,14 Z" id="Combined-Shape" fill="#335EEA"></path>
        <rect id="Rectangle" fill="#335EEA" opacity="0.3" x="3" y="19" width="18" height="1" rx="0.5"></rect>
    </g>
</svg>

<svg width="24" height="24" viewBox="0 0 24 24" xmlns="http://www.w3.org/2000/svg"><g fill="none" fill-rule="evenodd"><path d="M0 0h24v24H0z"/><path d="M3 5h18a1 1 0 011 1v11a1 1 0 01-1 1H3a1 1 0 01-1-1V6a1 1 0 011-1zm6.632 5.066h1.4V9.044H7.035v1.022h1.4V14h1.197v-3.934zM14.935 14l1.911-4.956h-1.323l-1.141 3.514h-.028l-1.148-3.514h-1.344L13.738 14h1.197z" fill="#335EEA"/><rect fill="#335EEA" opacity=".3" x="3" y="19" width="18" height="1" rx=".5"/></g></svg>
